Delta/apps/scalable/pocketcasts.svg

<svg width="192" height="192" viewBox="0 0 192 192" fill="none" xmlns="http://www.w3.org/2000/svg">
<path fill-rule="evenodd" clip-rule="evenodd" d="M95.6053 181.808C142.332 181.808 180.211 143.571 180.211 96.4039C180.211 49.2366 142.332 11 95.6053 11C48.8791 11 11 49.2366 11 96.4039C11 143.571 48.8791 181.808 95.6053 181.808Z" fill="#FF837D"/>
<path d="M153 96C153 64.5198 127.48 39 96 39C64.5198 39 39 64.5198 39 96C39 127.48 64.5198 153 96 153V153" stroke="white" stroke-width="10"/>
<path d="M137 96C137 73.3563 118.644 55 96 55C73.3563 55 55 73.3563 55 96C55 118.644 73.3563 137 96 137V137" stroke="white" stroke-width="10"/>
</svg>

<svg width="192" height="192" fill="none" version="1.1" viewBox="0 0 192 192" xmlns="http://www.w3.org/2000/svg">
 <path d="m95.605 181.81c46.727 0 84.606-38.237 84.606-85.404 0-47.167-37.879-85.404-84.606-85.404-46.726 0-84.605 38.237-84.605 85.404 0 47.167 37.879 85.404 84.605 85.404z" clip-rule="evenodd" fill="#FF837D" fill-rule="evenodd"/>
 <path d="m153 96c0-31.48-25.52-57-57-57-31.48 0-57 25.52-57 57 0 31.48 25.52 57 57 57" stroke="#fff" stroke-width="10"/>
 <path d="m137 96c0-22.644-18.356-41-41-41-22.644 0-41 18.356-41 41 0 22.644 18.356 41 41 41" stroke="#fff" stroke-width="10"/>
</svg>
